dist/svg/spinner.svg

<svg width="16" height="16" viewBox="0 0 16 16" fill="rgb(34, 34, 34)" xmlns="http://www.w3.org/2000/svg"><title>spinner</title><path d="M16 8.00001C15.999 12.417 12.418 15.998 8 15.998C3.582 15.998 0 12.416 0 7.99801C0 4.11001 2.773 0.870015 6.449 0.148015L6.5 0.140015V1.68001C3.611 2.38201 1.5 4.94701 1.5 8.00501C1.5 11.595 4.41 14.505 8 14.505C11.59 14.505 14.5 11.595 14.5 8.00501C14.5 4.94701 12.389 2.38301 9.544 1.69001L9.5 1.68101V0.141015C13.227 0.871015 16 4.11201 16 8.00001C16 8.00101 16 8.00002 16 8.00102V8.00001Z" fill="rgb(34, 34, 34)" fill-opacity="1.00"/></svg>

<!-- Generated by Trend Micro Style Portal -->
<svg version="1.1" xmlns="http://www.w3.org/2000/svg" width="16" height="16" viewBox="0 0 16 16">
  <title>spinner</title>
  <path fill="rgb(34,34,34)" d="M16 8c-0.001 4.417-3.582 7.998-8 7.998s-8-3.582-8-8c0-3.888 2.773-7.128 6.449-7.85l0.051-0.008v1.54c-2.889 0.702-5 3.267-5 6.325 0 3.59 2.91 6.5 6.5 6.5s6.5-2.91 6.5-6.5c0-3.058-2.111-5.622-4.956-6.315l-0.044-0.009v-1.54c3.727 0.73 6.5 3.97 6.5 7.858 0 0.001 0 0.001 0 0.002v-0z"></path>
</svg>
